icons/phone-filled.svg

<svg width="24" height="24" viewBox="0 0 24 24" fill="none" xmlns="http://www.w3.org/2000/svg">
<path fill-rule="evenodd" clip-rule="evenodd" d="M15.678 13.368C15.043 13.658 14.788 14.24 14.788 14.24C14.717 14.379 14.278 14.92 13.47 15.863C9.90801 14.938 8.60001 11.923 8.18001 10.537C9.10101 9.742 9.62601 9.312 9.75301 9.247C9.75601 9.247 10.318 8.944 10.642 8.358C10.966 7.772 10.832 7.118 10.832 7.118C10.555 5.518 10.349 4.355 10.212 3.632C10.212 3.632 10.133 2.999 9.54801 2.478C8.96301 1.958 8.24801 2.002 8.24801 2.002L4.02701 2C2.68701 2 2.02001 2.649 2.02801 3.947C1.75901 9.249 3.48601 13.762 7.20901 17.485C10.234 20.51 14.399 22.038 19.603 22.038C19.693 22.038 19.853 22.025 20.08 21.999C21.37 22.002 22.016 21.336 22.016 20V15.811C22.016 15.811 22.076 15.226 21.605 14.586C21.133 13.946 20.405 13.849 20.405 13.849C19.2519 13.6225 18.0979 13.4005 16.943 13.183C16.943 13.183 16.313 13.078 15.679 13.368H15.678Z" fill="#3A3A47"/>
</svg>

<svg xmlns="http://www.w3.org/2000/svg" width="24" height="24" viewBox="0 0 24 24">
    <path fill="#3A3A47" fill-rule="evenodd" d="M15.678 13.368c-.635.29-.89.872-.89.872-.071.139-.51.68-1.318 1.623-3.562-.925-4.87-3.94-5.29-5.326.921-.795 1.446-1.225 1.573-1.29.003 0 .565-.303.889-.889.324-.586.19-1.24.19-1.24-.277-1.6-.483-2.763-.62-3.486 0 0-.079-.633-.664-1.154-.585-.52-1.3-.476-1.3-.476L4.027 2c-1.34 0-2.007.649-1.999 1.947-.269 5.302 1.458 9.815 5.181 13.538 3.025 3.025 7.19 4.553 12.394 4.553.09 0 .25-.013.477-.039 1.29.003 1.936-.663 1.936-1.999v-4.189s.06-.585-.411-1.225c-.472-.64-1.2-.737-1.2-.737a454.13 454.13 0 0 0-3.462-.666s-.63-.105-1.264.185z"/>
</svg>
